Papirus-nordic/32x32/places/folder-red-meocloud.svg

<svg xmlns="http://www.w3.org/2000/svg" width="32" height="32" version="1"><rect width="25" height="16" x="3" y="12" rx="1.25" ry="1.25" opacity=".2"/><path d="M3 21.75c0 .692.558 1.25 1.25 1.25h22.5c.692 0 1.25-.558 1.25-1.25V8.25C28 7.558 27.442 7 26.75 7H14v-.75C14 5.558 13.443 5 12.75 5h-8.5C3.558 5 3 5.558 3 6.25" fill="#ae4f58"/><rect width="25" height="16" x="3" y="10" rx="1.25" ry="1.25" opacity=".2"/><rect width="21" height="10" x="5" y="9" rx="1.25" ry="1.25" fill="#e4e4e4"/><rect width="25" height="16" x="3" y="11" rx="1.25" ry="1.25" fill="#bf616a"/><path d="M4.25 5C3.558 5 3 5.558 3 6.25v1C3 6.558 3.558 6 4.25 6h8.5c.693 0 1.25.558 1.25 1.25V8h12.75c.692 0 1.25.557 1.25 1.25v-1C28 7.558 27.442 7 26.75 7H14v-.75C14 5.558 13.443 5 12.75 5h-8.5z" opacity=".1" fill="#fff"/><path d="M16.2 15a3.196 3.196 0 0 0-2.848 1.748 1.998 1.998 0 0 0-2.731 1.584A2.402 2.402 0 0 0 9 20.6a2.4 2.4 0 0 0 2.4 2.4h7.2a2.398 2.398 0 0 0 .795-4.662c.003-.046.004-.093.005-.139A3.2 3.2 0 0 0 16.2 15zm-.001 2a1.17 1.17 0 0 1 1.199 1.195v.006a2.001 2.001 0 0 0 1.334 2.024.386.386 0 0 1 .268.375c0 .244-.156.4-.4.4h-7.2c-.244 0-.399-.155-.4-.398V20.6a.384.384 0 0 1 .27-.375 2.002 2.002 0 0 0 1.332-1.623 2 2 0 0 0 2.533-.946A1.186 1.186 0 0 1 16.199 17z" fill="#974a4d"/></svg>

<svg xmlns="http://www.w3.org/2000/svg" width="32" height="32" version="1">
 <rect style="opacity:0.2" width="25" height="16" x="3" y="12" rx="1.25" ry="1.25"/>
 <path style="fill:#ae4f58" d="M 3,21.75 C 3,22.442 3.5575,23 4.25,23 H 26.75 C 27.442,23 28,22.442 28,21.75 V 8.25 C 28,7.5575 27.442,7 26.75,7 H 14 V 6.25 C 14,5.5575 13.443,5 12.75,5 H 4.25 C 3.5575,5 3,5.5575 3,6.25"/>
 <rect style="opacity:0.2" width="25" height="16" x="3" y="10" rx="1.25" ry="1.25"/>
 <rect style="fill:#e4e4e4" width="21" height="10" x="5" y="9" rx="1.25" ry="1.25"/>
 <rect style="fill:#bf616a" width="25" height="16" x="3" y="11" rx="1.25" ry="1.25"/>
 <path style="opacity:0.1;fill:#ffffff" d="M 4.25 5 C 3.5575 5 3 5.5575 3 6.25 L 3 7.25 C 3 6.5575 3.5575 6 4.25 6 L 12.75 6 C 13.443 6 14 6.5575 14 7.25 L 14 8 L 26.75 8 C 27.442 8 28 8.5575 28 9.25 L 28 8.25 C 28 7.5575 27.442 7 26.75 7 L 14 7 L 14 6.25 C 14 5.5575 13.443 5 12.75 5 L 4.25 5 z"/>
 <path style="fill:#974a4d" d="M 16.2,15 C 14.998,15 13.897,15.676 13.352,16.748 13.113,16.651 12.857,16.6 12.6,16.6 11.599,16.6 10.755,17.341 10.621,18.332 9.653,18.665 9.001,19.576 9,20.6 9,21.925 10.075,23 11.4,23 H 18.6 C 19.925,23 21,21.925 21,20.6 20.999,19.581 20.356,18.675 19.395,18.338 19.398,18.292 19.399,18.245 19.4,18.199 19.4,16.432 17.967,15 16.2,15 Z M 16.199,17 C 16.884,17 17.396,17.511 17.398,18.195 V 18.201 C 17.337,19.099 17.883,19.927 18.732,20.225 18.899,20.283 18.999,20.424 19,20.6 19,20.844 18.844,21 18.6,21 H 11.4 C 11.156,21 11.001,20.845 11,20.602 V 20.6 C 11.001,20.422 11.102,20.282 11.27,20.225 11.985,19.979 12.5,19.351 12.602,18.602 13.564,18.992 14.664,18.581 15.135,17.656 15.341,17.25 15.747,17 16.199,17 Z"/>
</svg>
